docs/img/google.svg

<svg width="40" height="40" viewBox="0 0 40 40" fill="none" xmlns="http://www.w3.org/2000/svg">
<circle cx="20" cy="20" r="20" fill="#DC4E41"/>
<path fill-rule="evenodd" clip-rule="evenodd" d="M14.5527 21.6251V18.8394L22.2251 18.8394C22.3087 19.2834 22.3518 19.7341 22.3539 20.1858C22.3539 24.8287 19.242 28.1251 14.5527 28.1251C10.0654 28.1251 6.42773 24.4874 6.42773 20.0001C6.42773 15.5128 10.0654 11.8751 14.5527 11.8751C16.5742 11.8498 18.5264 12.6115 19.9965 13.9993L17.7911 16.1234C16.9185 15.2959 15.7551 14.8455 14.5527 14.8698C11.7556 14.9205 9.5146 17.2025 9.5146 20.0001C9.5146 22.7977 11.7556 25.0797 14.5527 25.1305C16.7509 25.2846 18.7226 23.7847 19.1607 21.6251H14.5527ZM30.8027 21.1608H34.2848L34.2849 18.8394H30.8027V15.3573H28.4813V18.8394H24.9991V21.1608H28.4813V24.643H30.8027V21.1608Z" fill="white"/>
</svg>

<svg width="40" height="40" viewBox="0 0 40 40" fill="none" xmlns="http://www.w3.org/2000/svg"><circle cx="20" cy="20" r="20" fill="#DC4E41"/><path fill-rule="evenodd" clip-rule="evenodd" d="M14.553 21.625V18.84h7.672c.084.444.127.895.129 1.347 0 4.643-3.112 7.94-7.801 7.94a8.125 8.125 0 010-16.25A7.788 7.788 0 0119.997 14l-2.206 2.124a4.572 4.572 0 00-3.238-1.253 5.131 5.131 0 000 10.26 4.389 4.389 0 004.608-3.505h-4.608zm16.25-.464h3.482v-2.322h-3.482v-3.482H28.48v3.482H25v2.322h3.482v3.482h2.322v-3.482z" fill="#fff"/></svg>
